icons/arrows-in-bottom-left-top-right.svg

<svg xmlns="http://www.w3.org/2000/svg" width="24" height="24" viewBox="0 0 24 24">
  <path d="M10.65,13.242 L10.7109996,13.2967914 L10.7109996,13.2967914 L10.7870723,13.3829777 L10.7870723,13.3829777 L10.8036865,13.4048407 C10.8215099,13.4288693 10.8382813,13.453725 10.8540045,13.4792912 C10.8613931,13.4913869 10.8685012,13.5036056 10.8751242,13.515723 C10.8862061,13.5357061 10.8966234,13.5561086 10.9063266,13.5767785 L10.9063266,13.5767785 L10.928896,13.6289415 C10.9366843,13.6484208 10.9438775,13.6682023 10.9502619,13.6878575 C10.9552713,13.7031487 10.9599023,13.7185367 10.964279,13.7341604 C10.9701664,13.7555635 10.9753602,13.7772539 10.9797599,13.7992742 C10.9832978,13.8166247 10.9863719,13.834051 10.9889807,13.8510388 L10.9889807,13.8510388 L10.9960336,13.9107499 L10.9960336,13.9107499 L10.996,13.919 L10.997,13.921 L10.997,13.924 L10.998,13.946 L10.999,13.981 L11,14 L11,20 L10.9932723,20.1166211 C10.9355072,20.6139598 10.5128358,21 10,21 C9.44771525,21 9,20.5522847 9,20 L9,20 L9,16.415 L3.70710678,21.7071068 L3.61289944,21.7902954 C3.22060824,22.0953203 2.65337718,22.0675907 2.29289322,21.7071068 C1.90236893,21.3165825 1.90236893,20.6834175 2.29289322,20.2928932 L2.29289322,20.2928932 L7.585,15 L4,15 L3.88337887,14.9932723 C3.38604019,14.9355072 3,14.5128358 3,14 C3,13.4477153 3.44771525,13 4,13 L4,13 L10.0183621,13.0001675 C10.0403374,13.0005686 10.0623021,13.0016897 10.0842176,13.0035309 L10.0842176,13.0035309 L10.1166211,13.0067277 C10.1291477,13.0081827 10.1416037,13.0098691 10.1539846,13.0117826 L10.1539846,13.0117826 L10.1764315,13.0155979 L10.1764315,13.0155979 L10.1988177,13.0197644 C10.2231682,13.0246765 10.2471983,13.0304733 10.2708729,13.0371197 L10.2918437,13.0433274 L10.2918437,13.0433274 L10.3117364,13.0495467 C10.3317977,13.0561225 10.3515792,13.0633157 10.371336,13.0712255 L10.371336,13.0712255 L10.4230991,13.0936538 C10.4438914,13.1033766 10.4642939,13.1137939 10.4840621,13.1246712 L10.4840621,13.1246712 L10.5206602,13.1460674 C10.546275,13.1617187 10.5711307,13.1784901 10.5953066,13.1963346 L10.5953066,13.1963346 L10.6148064,13.2112649 L10.625449,13.2196888 L10.625449,13.2196888 L10.637,13.23 L10.623,13.219 L10.65,13.242 Z M13.362,10.769 L13.347434,10.757792 L13.347434,10.757792 L13.2928932,10.7071068 L13.329,10.739 L13.2890004,10.7032086 L13.2890004,10.7032086 L13.2129277,10.6170223 L13.2129277,10.6170223 L13.1963135,10.5951593 C13.1784901,10.5711307 13.1617187,10.546275 13.1459955,10.5207088 C13.1386069,10.5086131 13.1314988,10.4963944 13.1248758,10.484277 C13.1137939,10.4642939 13.1033766,10.4438914 13.0936734,10.4232215 L13.0936734,10.4232215 L13.071104,10.3710585 C13.0633157,10.3515792 13.0561225,10.3317977 13.0497381,10.3121425 C13.0447287,10.2968513 13.0400977,10.2814633 13.035721,10.2658396 C13.0298336,10.2444365 13.0246398,10.2227461 13.0202401,10.2007258 C13.0167022,10.1833753 13.0136281,10.165949 13.0110193,10.1489612 C13.0037612,10.1003621 13,10.0506203 13,10 L13.001,10.053 L13,10.018 L13,10 L13,4 L13.0067277,3.88337887 C13.0644928,3.38604019 13.4871642,3 14,3 C14.5522847,3 15,3.44771525 15,4 L15,4 L15,7.585 L20.2928932,2.29289322 L20.3871006,2.20970461 C20.7793918,1.90467972 21.3466228,1.93240926 21.7071068,2.29289322 C22.0976311,2.68341751 22.0976311,3.31658249 21.7071068,3.70710678 L21.7071068,3.70710678 L16.415,9 L20,9 L20.1166211,9.00672773 C20.6139598,9.06449284 21,9.48716416 21,10 C21,10.5522847 20.5522847,11 20,11 L20,11 L14,11 C13.9935938,11 13.9872016,10.9999398 13.9816379,10.9998325 C13.9596626,10.9994314 13.9376979,10.9983103 13.9157824,10.9964691 L13.9157824,10.9964691 L13.8833789,10.9932723 C13.8708523,10.9918173 13.8583963,10.9901309 13.8460154,10.9882174 L13.8460154,10.9882174 L13.8235685,10.9844021 L13.8235685,10.9844021 L13.8011823,10.9802356 C13.7768318,10.9753235 13.7528017,10.9695267 13.7291271,10.9628803 L13.7081563,10.9566726 L13.7081563,10.9566726 L13.6882636,10.9504533 C13.6682023,10.9438775 13.6484208,10.9366843 13.628664,10.9287745 L13.628664,10.9287745 L13.5769009,10.9063462 C13.5561086,10.8966234 13.5357061,10.8862061 13.5159379,10.8753288 L13.5159379,10.8753288 L13.4793398,10.8539326 C13.453725,10.8382813 13.4288693,10.8215099 13.4046934,10.8036654 L13.4046934,10.8036654 L13.3851936,10.7887351 L13.349,10.757 L13.362,10.769 Z"/>
</svg>

<svg xmlns="http://www.w3.org/2000/svg" viewBox="0 0 24 24">
  <path d="m10.65 13.24.06.06.08.08.01.02a1.04 1.04 0 0 1 .1.18l.03.05a.95.95 0 0 1 .06.22v.13L11 14v6.12A1 1 0 0 1 9 20v-3.59l-5.3 5.3-.09.08a1 1 0 0 1-1.32-1.5L7.6 15H3.88A1 1 0 0 1 4 13h6.02a1 1 0 0 1 .06 0h.04a1 1 0 0 1 .03.01h.03l.02.01a1 1 0 0 1 .07.02h.02l.02.01.06.02.05.02.06.03.04.03.08.05.01.01.02.01v.01-.01l.02.02zm2.71-2.47-.01-.01-.06-.05.04.03-.04-.04-.08-.08-.01-.02a1.04 1.04 0 0 1-.1-.18l-.03-.05A.95.95 0 0 1 13 10v.05-6.17A1 1 0 0 1 15 4v3.58l5.3-5.29.09-.08a1 1 0 0 1 1.32 1.5L16.4 9h3.71a1 1 0 0 1-.12 2h-6a.98.98 0 0 1-.08 0h-.04a1 1 0 0 1-.03-.01h-.03l-.02-.01a1 1 0 0 1-.07-.02h-.02l-.02-.01a.99.99 0 0 1-.06-.02l-.05-.02a1.04 1.04 0 0 1-.06-.03l-.04-.03a1.03 1.03 0 0 1-.08-.05l-.01-.01-.04-.03h.01z"/>
</svg>
